X: 1193
T: An Culyek Hos
R: jig
M: 6/8
K: Bminor
|:F|B2 c d2 d|edc B2 F|d2 e f2 g|f>ec B2 F|
B2 c d>cd|edc B2 f|fde f>gf|edc B2:|
|:F|B2 e dcB|d2 c d2 B|B2 c dd/c/B|d2 e f3|
fde f2 f|edc d2 B|fde f>gf|edc B2:|

